X:1
T:Title
L:1/8
Q:1/4=108
M:6/8
K:F
V:1 treble nm="Church Organ, Staff"
V:1
 DEF E D2 | A G2 B A2 | G A2- A/ z/ ^c2- | c d2- d d2 | AGA B A2 | d c2 d d2 | B A2- A A2 | %7
w: By~A.~H.~Brown * * * *|||||||
 A A2- A .A2 | f e2 d c2 | d A2 G F2 | G A2- A/ z/ =B2- | B c2 F c2 | c F2 B A2 | ddc B A2 | %14
w: |||||||
 f e2- e/ z/ c2- | c d2- d d2 | B A2- A A2 | A D2- D .D2 |] %18
w: ||||

